svgs/duotone/shredder.svg

<svg xmlns="http://www.w3.org/2000/svg" viewBox="0 0 512 512"><!--! Font Awesome Pro 6.6.0 by @fontawesome - https://fontawesome.com License - https://fontawesome.com/license (Commercial License) Copyright 2024 Fonticons, Inc. --><defs><style>.fa-secondary{opacity:.4}</style></defs><path class="fa-secondary" d="M40 384l0 104c0 13.3 10.7 24 24 24s24-10.7 24-24l0-104-48 0zM64 64l0 128 384 0 0-101.5c0-17-6.7-33.3-18.7-45.3L402.7 18.7C390.7 6.7 374.5 0 357.5 0L128 0C92.7 0 64 28.7 64 64zm72 320l0 104c0 13.3 10.7 24 24 24s24-10.7 24-24l0-104-48 0zm96 0l0 104c0 13.3 10.7 24 24 24s24-10.7 24-24l0-104-48 0zm96 0l0 104c0 13.3 10.7 24 24 24s24-10.7 24-24l0-104-48 0zm96 0l0 104c0 13.3 10.7 24 24 24s24-10.7 24-24l0-104-48 0z"/><path class="fa-primary" d="M64 192c-35.3 0-64 28.7-64 64l0 96c0 17.7 14.3 32 32 32l448 0c17.7 0 32-14.3 32-32l0-96c0-35.3-28.7-64-64-64L64 192zm368 56a24 24 0 1 1 0 48 24 24 0 1 1 0-48z"/></svg>

<svg xmlns="http://www.w3.org/2000/svg" viewBox="0 0 512 512"><!--! Font Awesome Pro 6.4.0 by @fontawesome - https://fontawesome.com License - https://fontawesome.com/license (Commercial License) Copyright 2023 Fonticons, Inc. --><defs><style>.fa-secondary{opacity:.4}</style></defs><path class="fa-primary" d="M64 192c-35.3 0-64 28.7-64 64v96c0 17.7 14.3 32 32 32H480c17.7 0 32-14.3 32-32V256c0-35.3-28.7-64-64-64H64zm368 56a24 24 0 1 1 0 48 24 24 0 1 1 0-48z"/><path class="fa-secondary" d="M128 0C92.7 0 64 28.7 64 64V192h64V64H354.7L384 93.3V192h64V93.3c0-17-6.7-33.3-18.7-45.3L400 18.7C388 6.7 371.7 0 354.7 0H128zM40 384V488c0 13.3 10.7 24 24 24s24-10.7 24-24V384H40zm96 0V488c0 13.3 10.7 24 24 24s24-10.7 24-24V384H136zm96 0V488c0 13.3 10.7 24 24 24s24-10.7 24-24V384H232zm96 0V488c0 13.3 10.7 24 24 24s24-10.7 24-24V384H328zm96 0V488c0 13.3 10.7 24 24 24s24-10.7 24-24V384H424z"/></svg>
